doc/integrations/cortx-s3-slack-bot/images/python/Python_logo_and_wordmark.svg

<?xml version="1.0" encoding="UTF-8" standalone="no"?>
<!-- Created with Inkscape (http://www.inkscape.org/) -->
<svg
   xmlns:dc="http://purl.org/dc/elements/1.1/"
   xmlns:cc="http://web.resource.org/cc/"
   xmlns:rdf="http://www.w3.org/1999/02/22-rdf-syntax-ns#"
   xmlns:svg="http://www.w3.org/2000/svg"
   xmlns="http://www.w3.org/2000/svg"
   xmlns:xlink="http://www.w3.org/1999/xlink"
   xmlns:sodipodi="http://inkscape.sourceforge.net/DTD/sodipodi-0.dtd"
   xmlns:inkscape="http://www.inkscape.org/namespaces/inkscape"
   version="1.0"
   width="388.84pt"
   height="115.02pt"
   id="svg2"
   sodipodi:version="0.32"
   inkscape:version="0.43"
   sodipodi:docname="logo-python-generic.svg"
   sodipodi:docbase="/home/sdeibel">
  <metadata
     id="metadata2193">
    <rdf:RDF>
      <cc:Work
         rdf:about="">
        <dc:format>image/svg+xml</dc:format>
        <dc:type
           rdf:resource="http://purl.org/dc/dcmitype/StillImage" />
      </cc:Work>
    </rdf:RDF>
  </metadata>
  <sodipodi:namedview
     inkscape:window-height="543"
     inkscape:window-width="791"
     inkscape:pageshadow="2"
     inkscape:pageopacity="0.0"
     borderopacity="1.0"
     bordercolor="#666666"
     pagecolor="#ffffff"
     id="base"
     inkscape:zoom="1.4340089"
     inkscape:cx="243.02499"
     inkscape:cy="71.887497"
     inkscape:window-x="0"
     inkscape:window-y="0"
     inkscape:current-layer="svg2" />
  <defs
     id="defs4">
    <linearGradient
       id="linearGradient2795">
      <stop
         style="stop-color:#b8b8b8;stop-opacity:0.49803922"
         offset="0"
         id="stop2797" />
      <stop
         style="stop-color:#7f7f7f;stop-opacity:0"
         offset="1"
         id="stop2799" />
    </linearGradient>
    <linearGradient
       id="linearGradient2787">
      <stop
         style="stop-color:#7f7f7f;stop-opacity:0.5"
         offset="0"
         id="stop2789" />
      <stop
         style="stop-color:#7f7f7f;stop-opacity:0"
         offset="1"
         id="stop2791" />
    </linearGradient>
    <linearGradient
       id="linearGradient3676">
      <stop
         style="stop-color:#b2b2b2;stop-opacity:0.5"
         offset="0"
         id="stop3678" />
      <stop
         style="stop-color:#b3b3b3;stop-opacity:0"
         offset="1"
         id="stop3680" />
    </linearGradient>
    <linearGradient
       id="linearGradient3236">
      <stop
         style="stop-color:#f4f4f4;stop-opacity:1"
         offset="0"
         id="stop3244" />
      <stop
         style="stop-color:#ffffff;stop-opacity:1"
         offset="1"
         id="stop3240" />
    </linearGradient>
    <linearGradient
       id="linearGradient4671">
      <stop
         style="stop-color:#ffd43b;stop-opacity:1"
         offset="0"
         id="stop4673" />
      <stop
         style="stop-color:#ffe873;stop-opacity:1"
         offset="1"
         id="stop4675" />
    </linearGradient>
    <linearGradient
       id="linearGradient4689">
      <stop
         style="stop-color:#5a9fd4;stop-opacity:1"
         offset="0"
         id="stop4691" />
      <stop
         style="stop-color:#306998;stop-opacity:1"
         offset="1"
         id="stop4693" />
    </linearGradient>
    <linearGradient
       x1="224.23996"
       y1="144.75717"
       x2="-65.308502"
       y2="144.75717"
       id="linearGradient2987"
       xlink:href="#linearGradient4671"
       gradientUnits="userSpaceOnUse"
       gradientTransform="translate(100.2702,99.61116)" />
    <linearGradient
       x1="172.94208"
       y1="77.475983"
       x2="26.670298"
       y2="76.313133"
       id="linearGradient2990"
       xlink:href="#linearGradient4689"
       gradientUnits="userSpaceOnUse"
       gradientTransform="translate(100.2702,99.61116)" />
    <linearGradient
       x1="172.94208"
       y1="77.475983"
       x2="26.670298"
       y2="76.313133"
       id="linearGradient2587"
       xlink:href="#linearGradient4689"
       gradientUnits="userSpaceOnUse"
       gradientTransform="translate(100.2702,99.61116)" />
    <linearGradient
       x1="224.23996"
       y1="144.75717"
       x2="-65.308502"
       y2="144.75717"
       id="linearGradient2589"
       xlink:href="#linearGradient4671"
       gradientUnits="userSpaceOnUse"
       gradientTransform="translate(100.2702,99.61116)" />
    <linearGradient
       x1="172.94208"
       y1="77.475983"
       x2="26.670298"
       y2="76.313133"
       id="linearGradient2248"
       xlink:href="#linearGradient4689"
       gradientUnits="userSpaceOnUse"
       gradientTransform="translate(100.2702,99.61116)" />
    <linearGradient
       x1="224.23996"
       y1="144.75717"
       x2="-65.308502"
       y2="144.75717"
       id="linearGradient2250"
       xlink:href="#linearGradient4671"
       gradientUnits="userSpaceOnUse"
       gradientTransform="translate(100.2702,99.61116)" />
    <linearGradient
       x1="224.23996"
       y1="144.75717"
       x2="-65.308502"
       y2="144.75717"
       id="linearGradient2255"
       xlink:href="#linearGradient4671"
       gradientUnits="userSpaceOnUse"
       gradientTransform="matrix(0.562541,0,0,0.567972,-11.5974,-7.60954)" />
    <linearGradient
       x1="172.94208"
       y1="76.176224"
       x2="26.670298"
       y2="76.313133"
       id="linearGradient2258"
       xlink:href="#linearGradient4689"
       gradientUnits="userSpaceOnUse"
       gradientTransform="matrix(0.562541,0,0,0.567972,-11.5974,-7.60954)" />
    <radialGradient
       cx="61.518883"
       cy="132.28575"
       r="29.036913"
       fx="61.518883"
       fy="132.28575"
       id="radialGradient2801"
       xlink:href="#linearGradient2795"
       gradientUnits="userSpaceOnUse"
       gradientTransform="matrix(1,0,0,0.177966,0,108.7434)" />
    <linearGradient
       x1="150.96111"
       y1="192.35176"
       x2="112.03144"
       y2="137.27299"
       id="linearGradient1475"
       xlink:href="#linearGradient4671"
       gradientUnits="userSpaceOnUse"
       gradientTransform="matrix(0.562541,0,0,0.567972,-9.399749,-5.305317)" />
    <linearGradient
       x1="26.648937"
       y1="20.603781"
       x2="135.66525"
       y2="114.39767"
       id="linearGradient1478"
       xlink:href="#linearGradient4689"
       gradientUnits="userSpaceOnUse"
       gradientTransform="matrix(0.562541,0,0,0.567972,-9.399749,-5.305317)" />
    <radialGradient
       cx="61.518883"
       cy="132.28575"
       r="29.036913"
       fx="61.518883"
       fy="132.28575"
       id="radialGradient1480"
       xlink:href="#linearGradient2795"
       gradientUnits="userSpaceOnUse"
       gradientTransform="matrix(2.382716e-8,-0.296405,1.43676,4.683673e-7,-128.544,150.5202)" />
  </defs>
  <g
     id="g2303">
    <path
       id="path46"
       style="fill:#646464;fill-opacity:1"
       d="M 184.61344,61.929363 C 184.61344,47.367213 180.46118,39.891193 172.15666,39.481813 C 168.85239,39.325863 165.62611,39.852203 162.48754,41.070593 C 159.98254,41.967323 158.2963,42.854313 157.40931,43.751043 L 157.40931,78.509163 C 162.72147,81.842673 167.43907,83.392453 171.55234,83.148783 C 180.25649,82.573703 184.61344,75.507063 184.61344,61.929363 z M 194.85763,62.533683 C 194.85763,69.931723 193.12265,76.072393 189.63319,80.955683 C 185.7441,86.482283 180.35396,89.328433 173.46277,89.484393 C 168.26757,89.650093 162.91642,88.022323 157.40931,84.610843 L 157.40931,116.20116 L 148.50047,113.02361 L 148.50047,42.903043 C 149.96253,41.109583 151.84372,39.569543 154.12454,38.263433 C 159.42696,35.173603 165.86978,33.584823 173.45302,33.506853 L 173.57973,33.633563 C 180.50991,33.545833 185.85132,36.391993 189.60395,42.162263 C 193.10315,47.454933 194.85763,54.238913 194.85763,62.533683 z " />
    <path
       id="path48"
       style="fill:#646464;fill-opacity:1"
       d="M 249.30487,83.265743 C 249.30487,93.188283 248.31067,100.05998 246.32227,103.88084 C 244.32411,107.7017 240.52275,110.75254 234.90842,113.02361 C 230.35653,114.81707 225.43425,115.79178 220.15133,115.95748 L 218.67952,110.34316 C 224.05016,109.61213 227.83204,108.88109 230.02513,108.15006 C 234.34309,106.688 237.30621,104.44617 238.93397,101.44406 C 240.24008,98.997543 240.88339,94.328693 240.88339,87.418003 L 240.88339,85.098203 C 234.79146,87.866373 228.40711,89.240713 221.73036,89.240713 C 217.34417,89.240713 213.47457,87.866373 210.14107,85.098203 C 206.39818,82.086343 204.52674,78.265483 204.52674,73.635623 L 204.52674,36.557693 L 213.43558,33.506853 L 213.43558,70.828453 C 213.43558,74.815013 214.7222,77.885353 217.29543,80.039463 C 219.86866,82.193563 223.20217,83.226753 227.2862,83.148783 C 231.37023,83.061053 235.74667,81.482023 240.39603,78.392203 L 240.39603,34.851953 L 249.30487,34.851953 L 249.30487,83.265743 z " />
    <path
       id="path50"
       style="fill:#646464;fill-opacity:1"
       d="M 284.08249,88.997033 C 283.02006,89.084753 282.04535,89.123743 281.14862,89.123743 C 276.10937,89.123743 272.18129,87.924853 269.37413,85.517323 C 266.57671,83.109793 265.17314,79.786033 265.17314,75.546053 L 265.17314,40.456523 L 259.07146,40.456523 L 259.07146,34.851953 L 265.17314,34.851953 L 265.17314,19.968143 L 274.07223,16.800333 L 274.07223,34.851953 L 284.08249,34.851953 L 284.08249,40.456523 L 274.07223,40.456523 L 274.07223,75.302373 C 274.07223,78.645623 274.96896,81.014163 276.76243,82.398253 C 278.30247,83.538663 280.74899,84.191723 284.08249,84.357423 L 284.08249,88.997033 z " />
    <path
       id="path52"
       style="fill:#646464;fill-opacity:1"
       d="M 338.02288,88.266003 L 329.11404,88.266003 L 329.11404,53.878273 C 329.11404,50.379063 328.29528,47.367213 326.66753,44.852463 C 324.78634,42.006313 322.17411,40.583233 318.82112,40.583233 C 314.73708,40.583233 309.6296,42.737343 303.4987,47.045563 L 303.4987,88.266003 L 294.58985,88.266003 L 294.58985,6.0687929 L 303.4987,3.2616329 L 303.4987,40.700203 C 309.191,36.557693 315.40963,34.481563 322.16436,34.481563 C 326.88196,34.481563 330.70282,36.070333 333.62694,39.238143 C 336.56082,42.405943 338.02288,46.353513 338.02288,51.071103 L 338.02288,88.266003 L 338.02288,88.266003 z " />
    <path
       id="path54"
       style="fill:#646464;fill-opacity:1"
       d="M 385.37424,60.525783 C 385.37424,54.930953 384.31182,50.310833 382.19669,46.655673 C 379.68195,42.201253 375.77337,39.852203 370.49044,39.608523 C 360.72386,40.173863 355.85032,47.172273 355.85032,60.584263 C 355.85032,66.734683 356.86401,71.871393 358.91089,75.994413 C 361.52312,81.248093 365.44145,83.840823 370.66589,83.753103 C 380.47146,83.675123 385.37424,75.935933 385.37424,60.525783 z M 395.13109,60.584263 C 395.13109,68.547643 393.09395,75.175663 389.02941,80.468333 C 384.5555,86.394563 378.37584,89.367423 370.49044,89.367423 C 362.67328,89.367423 356.58135,86.394563 352.18541,80.468333 C 348.19885,75.175663 346.21044,68.547643 346.21044,60.584263 C 346.21044,53.098503 348.36455,46.801883 352.67276,41.674913 C 357.22466,36.236033 363.20937,33.506853 370.6074,33.506853 C 378.00545,33.506853 384.02914,36.236033 388.66877,41.674913 C 392.97697,46.801883 395.13109,53.098503 395.13109,60.584263 z " />
    <path
       id="path56"
       style="fill:#646464;fill-opacity:1"
       d="M 446.20583,88.266003 L 437.29699,88.266003 L 437.29699,51.928853 C 437.29699,47.942293 436.0981,44.832973 433.70032,42.591133 C 431.30253,40.359053 428.10549,39.277123 424.11893,39.364853 C 419.8887,39.442833 415.86314,40.826913 412.04229,43.507363 L 412.04229,88.266003 L 403.13345,88.266003 L 403.13345,42.405943 C 408.26042,38.672813 412.97801,36.236033 417.28621,35.095623 C 421.35076,34.033193 424.93769,33.506853 428.02752,33.506853 C 430.14264,33.506853 432.13104,33.711543 434.00248,34.120913 C 437.50169,34.929923 440.34783,36.430973 442.54093,38.633823 C 444.98744,41.070593 446.20583,43.994723 446.20583,47.415943 L 446.20583,88.266003 z " />
    <path
       id="path1948"
       style="fill:url(#linearGradient1478);fill-opacity:1"
       d="M 60.510156,6.3979729 C 55.926503,6.4192712 51.549217,6.8101906 47.697656,7.4917229 C 36.35144,9.4962267 34.291407,13.691825 34.291406,21.429223 L 34.291406,31.647973 L 61.103906,31.647973 L 61.103906,35.054223 L 34.291406,35.054223 L 24.228906,35.054223 C 16.436447,35.054223 9.6131468,39.73794 7.4789058,48.647973 C 5.0170858,58.860939 4.9078907,65.233996 7.4789058,75.897973 C 9.3848341,83.835825 13.936449,89.491721 21.728906,89.491723 L 30.947656,89.491723 L 30.947656,77.241723 C 30.947656,68.391821 38.6048,60.585475 47.697656,60.585473 L 74.478906,60.585473 C 81.933857,60.585473 87.885159,54.447309 87.885156,46.960473 L 87.885156,21.429223 C 87.885156,14.162884 81.755176,8.7044455 74.478906,7.4917229 C 69.872919,6.7249976 65.093809,6.3766746 60.510156,6.3979729 z M 46.010156,14.616723 C 48.779703,14.616723 51.041406,16.915369 51.041406,19.741723 C 51.041404,22.558059 48.779703,24.835473 46.010156,24.835473 C 43.23068,24.835472 40.978906,22.558058 40.978906,19.741723 C 40.978905,16.91537 43.23068,14.616723 46.010156,14.616723 z " />
    <path
       id="path1950"
       style="fill:url(#linearGradient1475);fill-opacity:1"
       d="M 91.228906,35.054223 L 91.228906,46.960473 C 91.228906,56.191228 83.403011,63.960472 74.478906,63.960473 L 47.697656,63.960473 C 40.361823,63.960473 34.291407,70.238956 34.291406,77.585473 L 34.291406,103.11672 C 34.291406,110.38306 40.609994,114.65704 47.697656,116.74172 C 56.184987,119.23733 64.323893,119.68835 74.478906,116.74172 C 81.229061,114.78733 87.885159,110.85411 87.885156,103.11672 L 87.885156,92.897973 L 61.103906,92.897973 L 61.103906,89.491723 L 87.885156,89.491723 L 101.29141,89.491723 C 109.08387,89.491723 111.98766,84.056315 114.69765,75.897973 C 117.49698,67.499087 117.37787,59.422197 114.69765,48.647973 C 112.77187,40.890532 109.09378,35.054223 101.29141,35.054223 L 91.228906,35.054223 z M 76.166406,99.710473 C 78.945884,99.710476 81.197656,101.98789 81.197656,104.80422 C 81.197654,107.63057 78.945881,109.92922 76.166406,109.92922 C 73.396856,109.92922 71.135156,107.63057 71.135156,104.80422 C 71.135158,101.98789 73.396853,99.710473 76.166406,99.710473 z " />
    <path
       id="text3004"
       style="font-size:15.16445827px;font-style:normal;font-weight:normal;line-height:125%;fill:#646464;fill-opacity:1;stroke:none;stroke-width:1px;stroke-linecap:butt;stroke-linejoin:miter;stroke-opacity:1;font-family:Bitstream Vera Sans"
       d="M 463.5544,26.909383 L 465.11635,26.909383 L 465.11635,17.113143 L 468.81648,17.113143 L 468.81648,15.945483 L 459.85427,15.945483 L 459.85427,17.113143 L 463.5544,17.113143 L 463.5544,26.909383 M 470.20142,26.909383 L 471.53589,26.909383 L 471.53589,17.962353 L 474.4323,26.908259 L 475.91799,26.908259 L 478.93615,17.992683 L 478.93615,26.909383 L 480.39194,26.909383 L 480.39194,15.945483 L 478.46605,15.945483 L 475.16774,25.33834 L 472.35477,15.945483 L 470.20142,15.945483 L 470.20142,26.909383" />
    <path
       id="path1894"
       style="opacity:0.44382019;fill:url(#radialGradient1480);fill-opacity:1;fill-rule:nonzero;stroke:none;stroke-width:20;stroke-miterlimit:4;stroke-dasharray:none;stroke-opacity:1"
       transform="matrix(0.73406,0,0,0.809524,16.24958,27.00935)"
       d="M 110.46717 132.28575 A 48.948284 8.6066771 0 1 1  12.570599,132.28575 A 48.948284 8.6066771 0 1 1  110.46717 132.28575 z" />
  </g>
</svg>

<svg xmlns:xlink="http://www.w3.org/1999/xlink" version="1.0" viewBox="0 0 518.453 153.36"><defs><linearGradient id="c"><stop style="stop-color:#b8b8b8;stop-opacity:.49803922" offset="0"/><stop style="stop-color:#7f7f7f;stop-opacity:0" offset="1"/></linearGradient><linearGradient id="a"><stop style="stop-color:#ffd43b;stop-opacity:1" offset="0"/><stop style="stop-color:#ffe873;stop-opacity:1" offset="1"/></linearGradient><linearGradient id="b"><stop style="stop-color:#5a9fd4;stop-opacity:1" offset="0"/><stop style="stop-color:#306998;stop-opacity:1" offset="1"/></linearGradient><linearGradient id="e" x1="150.961" x2="112.031" y1="192.352" y2="137.273" gradientTransform="matrix(.56254 0 0 .56797 -9.4 -5.305)" gradientUnits="userSpaceOnUse" xlink:href="#a"/><linearGradient id="d" x1="26.649" x2="135.665" y1="20.604" y2="114.398" gradientTransform="matrix(.56254 0 0 .56797 -9.4 -5.305)" gradientUnits="userSpaceOnUse" xlink:href="#b"/><radialGradient id="f" cx="61.519" cy="132.286" r="29.037" fx="61.519" fy="132.286" gradientTransform="matrix(0 -.2964 1.43676 0 -128.544 150.52)" gradientUnits="userSpaceOnUse" xlink:href="#c"/></defs><path d="M184.613 61.93c0-14.563-4.152-22.039-12.456-22.448a23.4 23.4 0 00-9.67 1.589c-2.504.896-4.19 1.783-5.078 2.68v34.758c5.312 3.334 10.03 4.883 14.143 4.64 8.704-.575 13.061-7.642 13.061-21.22zm10.245.604c0 7.398-1.735 13.538-5.225 18.422-3.889 5.526-9.279 8.372-16.17 8.528-5.195.166-10.547-1.462-16.054-4.873v31.59l-8.909-3.177V42.903c1.463-1.793 3.344-3.333 5.625-4.64 5.302-3.09 11.745-4.678 19.328-4.756l.127.127c6.93-.088 12.271 2.758 16.024 8.528 3.5 5.293 5.254 12.077 5.254 20.372zm54.447 20.732c0 9.922-.994 16.794-2.983 20.615-1.998 3.82-5.8 6.872-11.414 9.143-4.551 1.793-9.474 2.768-14.757 2.933l-1.471-5.614c5.37-.73 9.152-1.462 11.345-2.193 4.318-1.462 7.281-3.704 8.909-6.706 1.306-2.446 1.95-7.115 1.95-14.026v-2.32c-6.093 2.768-12.477 4.143-19.154 4.143-4.386 0-8.255-1.375-11.589-4.143-3.743-3.012-5.614-6.833-5.614-11.462V36.558l8.909-3.051v37.321c0 3.987 1.286 7.057 3.86 9.211 2.573 2.155 5.906 3.188 9.99 3.11 4.084-.088 8.46-1.667 13.11-4.757v-43.54h8.909v48.414zm34.777 5.731a35.662 35.662 0 01-2.933.127c-5.04 0-8.968-1.2-11.775-3.607-2.797-2.407-4.2-5.731-4.2-9.97v-35.09h-6.103v-5.605h6.102V19.968l8.9-3.168v18.052h10.01v5.605h-10.01v34.845c0 3.344.896 5.712 2.69 7.096 1.54 1.14 3.986 1.794 7.32 1.96v4.639zm53.94-.731h-8.908V53.878c0-3.499-.819-6.51-2.446-9.026-1.882-2.846-4.494-4.269-7.847-4.269-4.084 0-9.191 2.154-15.322 6.463v41.22h-8.91V6.069l8.91-2.807V40.7c5.692-4.142 11.91-6.218 18.665-6.218 4.718 0 8.539 1.588 11.463 4.756 2.934 3.168 4.396 7.116 4.396 11.833v37.195zm47.352-27.74c0-5.595-1.062-10.215-3.177-13.87-2.515-4.455-6.424-6.804-11.707-7.047-9.766.565-14.64 7.563-14.64 20.975 0 6.15 1.014 11.287 3.06 15.41 2.613 5.254 6.531 7.847 11.756 7.76 9.805-.079 14.708-7.818 14.708-23.228zm9.757.058c0 7.964-2.037 14.592-6.102 19.884-4.474 5.927-10.653 8.9-18.539 8.9-7.817 0-13.909-2.973-18.305-8.9-3.986-5.292-5.975-11.92-5.975-19.884 0-7.485 2.155-13.782 6.463-18.91 4.552-5.438 10.536-8.167 17.934-8.167 7.398 0 13.422 2.729 18.062 8.168 4.308 5.127 6.462 11.424 6.462 18.91zm51.075 27.682h-8.909V51.929c0-3.987-1.199-7.096-3.597-9.338-2.397-2.232-5.595-3.314-9.581-3.226-4.23.078-8.256 1.462-12.077 4.142v44.759h-8.909v-45.86c5.127-3.733 9.845-6.17 14.153-7.31 4.065-1.063 7.652-1.59 10.742-1.59 2.115 0 4.103.206 5.974.615 3.5.809 6.346 2.31 8.539 4.513 2.446 2.437 3.665 5.36 3.665 8.782v40.85z" style="fill:#646464;fill-opacity:1"/><path d="M60.51 6.398c-4.583.021-8.96.412-12.812 1.094-11.347 2.004-13.407 6.2-13.407 13.937v10.219h26.813v3.406H24.229c-7.793 0-14.616 4.684-16.75 13.594-2.462 10.213-2.571 16.586 0 27.25 1.906 7.938 6.457 13.594 14.25 13.594h9.219v-12.25c0-8.85 7.657-16.657 16.75-16.657h26.78c7.456 0 13.407-6.138 13.407-13.625V21.43c0-7.267-6.13-12.726-13.406-13.938-4.606-.767-9.385-1.115-13.969-1.094zm-14.5 8.219c2.77 0 5.031 2.298 5.031 5.125 0 2.816-2.261 5.093-5.03 5.093-2.78 0-5.032-2.277-5.032-5.093 0-2.827 2.252-5.125 5.031-5.125z" style="fill:url(#d);fill-opacity:1"/><path d="M91.229 35.054V46.96c0 9.231-7.826 17-16.75 17H47.698c-7.336 0-13.407 6.279-13.407 13.625v25.532c0 7.266 6.319 11.54 13.407 13.625 8.487 2.495 16.626 2.946 26.78 0 6.751-1.955 13.407-5.888 13.407-13.625V92.898H61.104v-3.406h40.187c7.793 0 10.697-5.436 13.407-13.594 2.799-8.399 2.68-16.476 0-27.25-1.926-7.757-5.604-13.594-13.407-13.594H91.23zM76.166 99.71c2.78 0 5.032 2.278 5.032 5.094 0 2.827-2.252 5.125-5.032 5.125-2.77 0-5.03-2.298-5.03-5.125 0-2.816 2.26-5.094 5.03-5.094z" style="fill:url(#e);fill-opacity:1"/><path d="M463.554 26.91h1.562v-9.797h3.7v-1.168h-8.962v1.168h3.7v9.796m6.647 0h1.335v-8.947l2.896 8.946h1.486l3.018-8.915v8.916h1.456V15.945h-1.926l-3.298 9.393-2.813-9.393H470.2V26.91" style="font-size:15.16445827px;font-style:normal;font-weight:400;line-height:125%;fill:#646464;fill-opacity:1;stroke:none;stroke-width:1px;stroke-linecap:butt;stroke-linejoin:miter;stroke-opacity:1;font-family:Bitstream Vera Sans"/><path d="M110.467 132.286a48.948 8.607 0 11-97.896 0 48.948 8.607 0 1197.896 0z" transform="matrix(.73406 0 0 .80952 16.25 27.01)" style="opacity:.44382019;fill:url(#f);fill-opacity:1;fill-rule:nonzero;stroke:none;stroke-width:20;stroke-miterlimit:4;stroke-dasharray:none;stroke-opacity:1"/></svg>
